X:3
T:Polkett
T:efter Pelle Fors
O:Vikbolandet, Östergötland
S:efter Pelle Fors
B:Låtar efter Pelle Fors
R:Polka
D:[[!Klintetten]] - Dansbart
Z:Björn Ek 2008-12-31
M:2/4
L:1/16
K:G
%
|:D2(BA) GFED|E2(cB) AGFE|DFAd !trill!f3e|e2d2 (d^c)d2|
D2(BA) GFED  |E2(cB) AGFE|DFAd (f3.a)    |g8         :|
%
|:G2D2 B2G2|c2e2 edc2|F2D2 A2D2    |G2B2 BAG2 |
G2D2 B2G2  |c2e2 edc2|F2(AG) (FD)EF|(GA)GF G4:|
%

